X:1
T:D Major Oliver Holden, 1806
T:Isaac Watts, 1709 (Hymn 66, Book 2) 86. 86. (C. M.)  
T:Hanley Green No copyright. Transcribed from The Sacred Minstrel, 1806.
%%score [ 1 2 3 4 ]
L:1/8
M:3/2
K:D
V:1 treble nm="Treble" snm="Tr."
V:2 treble nm="Counter" snm="C."
V:3 treble-8 nm="Tenor" snm="T."
V:4 bass nm="Bass" snm="B."
V:1
 F4 | (G4 F4) E4 | (B4 A4) BABG | A8 d4 | c8 d4 | e8 d4 | (d3 c B4) A4 | B8 G4 | e8 d4 | c8 B4 | %10
w: 1.~There|is * a|land * of * * *|pure de-|light, where|saints im-|mor- * * tal|reign; In-|fi- nite|day ex-|
w: 2.~There|ev- * er-|las- * ting * * *|spring a-|bides, And|ne- ver-|with- * * ering|flowers; Death,|like a|nar- row|
 B8 B4 | A8 d4 | d8 e4 | (B3 c d4) A4 | (A4 e4) (d2 c2) | (d4 f4) (F3 G) | (A4 e2 d2) c4 | d8 |] %18
w: cludes the|night, And|plea- sures|ba- * * nish|pain, * And *|plea- * sures *|ba- * * nish|pain.|
w: sea, di-|vides This|heav'n- ly|land * * from|ours, * This *|heav'n- * ly *|land * * from|ours.|
V:2
 D4 | D8 D4 | F8 E4 | (F4 E4) E4 | E8 F4 | (E4 A4) D4 | (F4 G4) D4 | E8 E4 | G8 E4 | A8 G4 | %10
w: 3.~Sweet|fields be-|yond the|swel- * ling|flood Stand|dressed * in|li- * ving|green: So|to the|Jews old|
w: 4.~But|tim- orous|mor- tals|start * and|shrink To|cross * this|nar- * row|sea; And|lin- ger|shi- vering|
 G8 F4 | E8 F4 | F8 A4 | F8 A4 | (F4 G4) (D2 E2) | (F4 D4) A4 | (F4 E2 F2) G4 | F8 |] %18
w: Ca- naan|stood, While|Jor- dan|rolled be-|tween, * While *|Jor- * dan|rolled * * be-|tween.|
w: on the|brink, And|fear to|launch a-|way, * And *|fear * to|launch * * a-|way.|
V:3
 d4 | (B4 A4) G4 | (G4 F4) GFGE | (F2 d2 c4) B4 | A8 f4 | (A4 G4) (F2 G2) | (F4 E4) F4 | G8 B4 | %8
w: 5.~O!|could * we|make * our * * *|doubts * * re-|move, Those|gloo- * my *|doubts * that|rise, And|
w: 6.~Could|we * but|climb * where * * *|Mo- * * ses|stood, And|view * the *|land- * scape|o'er, Not|
 B8 G4 | e8 d4 | e8 d4 | (d4 c4) f4 | (A4 B4) c4 | (d4 B4) e4 | (d4 c2 B2) (A2 G2) | %15
w: see the|Ca- naan|that we|love, * With|un- * be-|clou- * ded|eyes, * * With *|
w: Jor- dan's|stream, nor|death's cold|flood, * Should|fright * us|from * the|shore, * * Should *|
 (F2 D2 F2 A2) (d3 e) | (f4 g2 f2) e4 | d8 |] %18
w: un- * * * be- *|clou- * * ded|eyes!|
w: fright * * * us *|from * * the|shore.|
V:4
 D,4 | D,8 A,,4 | D,8 D,4 | (D,4 E,4) E,4 | A,,8 D,4 | C,8 D,4 | (D,4 G,4) F,4 | E,8 E,4 | %8
 E,8 E,4 | (E,4 F,4) G,4 | (E,4 F,4) ^G,4 | A,8 D,4 | D,8 C,4 | B,,8 [A,,C,]4 | %14
 (D,4 A,2 G,2) (F,2 E,2) | D,8 D,4 | [A,,A,]8 A,,4 | D,8 |] %18

